icons/type-hierarchy-sub.svg

<svg xmlns="http://www.w3.org/2000/svg" fill="#ef5350" viewBox="0 0 24 24"><path d="m17.23 11.34-4.55-4.55c-.38-.39-.93-.39-1.32 0l-4.55 4.55c-.39.39-.39.94 0 1.32l4.55 4.55c.39.39.94.39 1.32 0l4.55-4.55c.33-.39.33-.93 0-1.32"/></svg>

<!--
  - The MIT License (MIT)
  -
  - Copyright (c) 2015-2024 Elior "Mallowigi" Boukhobza
  -
  - Permission is hereby granted, free of charge, to any person obtaining a copy
  - of this software and associated documentation files (the "Software"), to deal
  - in the Software without restriction, including without limitation the rights
  - to use, copy, modify, merge, publish, distribute, sublicense, and/or sell
  - copies of the Software, and to permit persons to whom the Software is
  - furnished to do so, subject to the following conditions:
  -
  - The above copyright notice and this permission notice shall be included in all
  - copies or substantial portions of the Software.
  -
  - THE SOFTWARE IS PROVIDED "AS IS", WITHOUT WARRANTY OF ANY KIND, EXPRESS OR
  - IMPLIED, INCLUDING BUT NOT LIMITED TO THE WARRANTIES OF MERCHANTABILITY,
  - FITNESS FOR A PARTICULAR PURPOSE AND NONINFRINGEMENT. IN NO EVENT SHALL THE
  - AUTHORS OR COPYRIGHT HOLDERS BE LIABLE FOR ANY CLAIM, DAMAGES OR OTHER
  - LIABILITY, WHETHER IN AN ACTION OF CONTRACT, TORT OR OTHERWISE, ARISING FROM,
  - OUT OF OR IN CONNECTION WITH THE SOFTWARE OR THE USE OR OTHER DEALINGS IN THE
  - SOFTWARE.
  -
  -->


<svg  xmlns="http://www.w3.org/2000/svg" version="1.1" width="16px" height="16px" viewBox="0 0 24 24"
     fill="#EF5350">
  <path
      d="M17.23,11.34L12.68,6.79C12.3,6.4 11.75,6.4 11.36,6.79L6.81,11.34C6.42,11.73 6.42,12.28 6.81,12.66L11.36,17.21C11.75,17.6 12.3,17.6 12.68,17.21L17.23,12.66C17.56,12.27 17.56,11.73 17.23,11.34Z"/>
</svg>
